!!!!SEGMENT: pl-cz--iii-589--005_rygall-ignacy--gentes-laudate-mariam-o-clemens-o-pia.krn
!!!cenid: 17xx:1106
!!!COM: Rygall, Ignacy
!!!COM-rismID: pe30110281
!!!CDT: <1750->1799
!!!CNT:
!!!OPR: Gentes laudate Mariam
!!!OTL: O clemens o pia
!!!OMV: 005
!!!PDT:
!!!AGN:
!!!SMS-siglum: PL-CZ
!!!SMS-shelfmark: III-589
!!!SMS-shelfwork: 001-005 M
!!!SMS-variant:
!!!SMS-altvar:
!!!NIFC-rismSourceID: 300001124
!!!NIFC-islandoraID: pl-cz:39366
!!!URL-pdf-islandora: https://repozytorium.nifc.pl/islandora/object/pl-cz%3A39366/datastream/PDF/view
!!!URL-scan:
!!!ONB-nifc: UWAGA: części Gentes laudate Mariam: Euntre (+ Gentes laudate Mariam (Basso solo)),
!!!AIN: 1 bass 1 cemba 2 soprn 1 viola 2 violn
!!!key: G
**kern	**kern	**dynam	**kern	**dynam	**kern	**kern	**text	**kern	**text	**kern	**dynam
*part7	*part6	*part6	*part5	*part5	*part4	*part3	*part3	*part2	*part2	*part1	*part1
*staff7	*staff6	*	*staff5	*	*staff4	*staff3	*staff3	*staff2	*staff2	*staff1	*
*I"Viola	*I"Violino Secondo	*	*I"Violino Primo	*	*I"Baſso Voce	*I"Canto 2do	*	*I"Canto 1mo	*	*I"Clavi Cembalo	*
*I'vla	*I'vl II	*	*I'vl I	*	*I'B	*I'S II	*	*I'S I	*	*I'cemb	*
*ICstr	*ICstr	*	*ICstr	*	*ICvox	*ICvox	*	*ICvox	*	*ICklav	*
*Iviola	*Ivioln	*	*Ivioln	*	*Ibass	*Isoprn	*	*Isoprn	*	*Icemba	*
*clefC3	*clefG2	*	*clefG2	*	*clefF4	*clefC1	*	*clefC1	*	*clefF4	*
*G:	*G:	*	*G:	*	*G:	*G:	*	*G:	*	*G:	*
*k[f#]	*k[f#]	*	*k[f#]	*	*k[f#]	*k[f#]	*	*k[f#]	*	*k[f#]	*
*M3/8	*M3/4	*	*M3/4	*	*M3/8	*M3/8	*	*M3/4	*	*M3/4	*
=1	=1	=1	=1	=1	=1	=1	=1	=1	=1	=1	=1
*	*2\right	*	*2\right	*	*	*2\right	*	*2\right	*	*2\right	*
*	*	*	*	*	*	*	*	*	*	*tremolo	*
!	!	!	!	!	!	!LO:TX:b:B:t=Andantino	!	!	!	!	!
!	!	!	!	!	!	!LO:TX:t=P:problem=metrum 3/8 zamiast 3/4	!	!LO:TX:a:t=Solo	!	!	!
!LO:TX:a:B:t=Andantino Tace\nil Coro da Capo	!LO:TX:b:B:t=Andantino	!	!LO:TX:b:B:t=Andantino	!	!LO:TX:a:B:t=Andantino Tace il Cori Da Capo	!LO:TX:a:t=Solo	!	!LO:TX:b:B:t=Andantino	!	!LO:TX:b:B:t=Andantino	!
!	!	!	!	!	!LO:TX:t=P:problem=metrum 3/8 zamiast 3/4	!	!	!	!	!	!
!	!	!	!	!LO:DY:t=p&colon;	!	!	!	!	!	!	!
!LO:TX:t=P:problem=metrum 3/8 zamiast 3/4	!	!	!	!	!	!	!	!	!	!	!
2.ryy	8b\L	.	8dd\L	p	2.ryy	4b\	O	4dd\	O	8G\L	.
.	8b\	.	8dd\	.	.	.	.	.	.	8G\	.
.	8cc\	.	8ee\	.	.	4cc\	Cle-	4ee\	Cle-	8G\	.
.	8cc\	.	8ee\	.	.	.	.	.	.	8G\	.
.	8a\	.	8ff#\	.	.	4a\	-mens	4ff#\	-mens	8G\	.
.	8a\J	.	8ff#\J	.	.	.	.	.	.	8G\J	.
=2	=2	=2	=2	=2	=2	=2	=2	=2	=2	=2	=2
2.ryy	8b\L	.	8gg\L	.	2.ryy	4b\	O	4gg\	o	8G\L	.
.	8b\	.	8gg\	.	.	.	.	.	.	8G\	.
.	8g\	.	8b\	.	.	4g\	pi-	4b\	pi-	8G\	.
.	8g\	.	8b\	.	.	.	.	.	.	8G\	.
.	8cc\	.	8ee\	.	.	4cc\	-a	4ee\	-a	8G\	.
.	8cc\J	.	8ee\J	.	.	.	.	.	.	8G\J	.
=3	=3	=3	=3	=3	=3	=3	=3	=3	=3	=3	=3
*	*	*	*	*	*	*	*	*	*	*Xtremolo	*
2.ryy	8b/L	.	8dd\L	.	2.ryy	4b\	O	4dd\	o	8G\L	.
.	8b/	.	8dd\	.	.	.	.	.	.	8G\J	.
.	8a/	.	8cc\	.	.	4aM\	dul-	4ccM\	Dul-	8D\L	.
.	8a/	.	8cc\	.	.	.	.	.	.	8D\J	.
.	8g/	.	8b\	.	.	4g\	-cis	4b\	-cis	8GG/L	.
.	8g/J	.	8b\J	.	.	.	.	.	.	8GG/J	.
!	!	!	!LO:LB:g=original	!	!	!	!	!	!	!	!
=4	=4	=4	=4	=4	=4	=4	=4	=4	=4	=4	=4
*	*tremolo	*	*	*	*	*	*	*	*	*	*
2.ryy	8g\L	.	4cc\	.	2.ryy	2.r	.	4cc'\	Vir-	2E\	.
.	8g\	.	.	.	.	.	.	.	.	.	.
.	8g\	.	4cc\	.	.	.	.	(4cc\	-go	.	.
.	8g\	.	.	.	.	.	.	.	.	.	.
.	8g\	.	4b\	.	.	.	.	4b\)	.	4D\	.
.	8g\J	.	.	.	.	.	.	.	.	.	.
=5	=5	=5	=5	=5	=5	=5	=5	=5	=5	=5	=5
2.ryy	8g\L	.	2ee\	.	2.ryy	2.r	.	2ee\	Vir-	4C/	.
.	8g\	.	.	.	.	.	.	.	.	.	.
.	8g\	.	.	.	.	.	.	.	.	4c\	.
.	8g\	.	.	.	.	.	.	.	.	.	.
.	8g\	.	4dd\	.	.	.	.	4dd\	-go	4B\	.
.	8g\J	.	.	.	.	.	.	.	.	.	.
=6	=6	=6	=6	=6	=6	=6	=6	=6	=6	=6	=6
*	*Xtremolo	*	*	*	*	*	*	*	*	*	*
2.ryy	4r	.	4r	.	2.ryy	(16ee\LL	Ma-	16gg\LL	Ma-	4r	.
.	.	.	.	.	.	16dd\	.	16ff#\	.	.	.
.	.	.	.	.	.	16cc\	.	16ee\	.	.	.
.	.	.	.	.	.	16b\JJ)	.	16dd\JJ	.	.	.
.	8a\L	.	8cc\L	.	.	4a\	.	4cc\	.	8F#\L	.
.	8a\	.	8cc\	.	.	.	.	.	.	8F#\J	.
.	8g\	.	8b\	.	.	4g\	.	4b\	.	8G\L	.
.	8g\J	.	8b\J	.	.	.	.	.	.	8G\J	.
=7	=7	=7	=7	=7	=7	=7	=7	=7	=7	=7	=7
*	*	*	*	*	*	*	*	*	*	*tremolo	*
2.ryy	8g/L	.	8b\L	.	2.ryy	4g\	-ri-	4b\	-ri-	8D\L	.
.	8g/	.	8b\	.	.	.	.	.	.	8D\	.
.	8f#/	.	8a\	.	.	4f#\	-a	4a\	-a	8D\	.
.	8f#/J	.	8dd\J	.	.	.	.	.	.	8D\J	.
!	!	!	!	!LO:DY:t=for	!	!	!	!	!	!	!
*	*	*	*	*	*	*	*	*	*	*Xtremolo	*
.	8.g/L	.	8.cc#X\L	f	.	4r	.	4r	.	8E\L	.
.	.	.	.	.	.	.	.	.	.	8E\J	.
.	32f#/LL	.	32b\LL	.	.	.	.	.	.	.	.
.	32g/JJJ	.	32cc#\JJJ	.	.	.	.	.	.	.	.
!	!	!	!	!	!	!LO:LB:g=original	!	!	!LO:LB:g=original	!	!
=8	=8	=8	=8	=8	=8	=8	=8	=8	=8	=8	=8
*	*tremolo	*	*tremolo	*	*	*	*	*	*	*tremolo	*
2.ryy	8a\L	.	8dd\L	.	2.ryy	2.r	.	4dd\	O	8F#\L	.
.	8a\	.	8dd\	.	.	.	.	.	.	8F#\	.
.	8a\	.	8dd\	.	.	.	.	4a\	Dul-	8F#\	.
.	8a\	.	8dd\	.	.	.	.	.	.	8F#\	.
.	8a\	.	8dd\	.	.	.	.	4ccn\	.	8F#\	.
.	8a\J	.	8dd\J	.	.	.	.	.	.	8F#\J	.
!	!	!	!	!	!	!	!	!	!	!LO:LB:g=original	!
=9	=9	=9	=9	=9	=9	=9	=9	=9	=9	=9	=9
2.ryy	8b\L	.	8dd\L	.	2.ryy	4g/	o	2b\	-cis	8G\L	.
.	8b\	.	8dd\	.	.	.	.	.	.	8G\	.
.	8b\	.	8dd\	.	.	4d/	pi-	.	.	8G\	.
.	8b\	.	8dd\	.	.	.	.	.	.	8G\	.
!	!	!	!	!	!	!	!	!LO:N:vis=2	!	!	!
.	8b\	.	8dd\	.	.	4fn/	.	4r	.	8G\	.
.	8b\J	.	8dd\J	.	.	.	.	.	.	8G\J	.
!	!LO:LB:g=original	!	!	!	!	!	!	!	!	!	!
=10	=10	=10	=10	=10	=10	=10	=10	=10	=10	=10	=10
2.ryy	8b\L	.	8ee\L	.	2.ryy	2e/	-a	4ee\	Ma-	8G\L	.
.	8b\	.	8ee\	.	.	.	.	.	.	8G\	.
.	8b\	.	8ee\	.	.	.	.	4b\	.	8G\	.
.	8b\	.	8ee\	.	.	.	.	.	.	8G\J	.
*	*	*	*	*	*	*	*	*	*	*Xtremolo	*
.	8b\	.	8ee\	.	.	4r	.	4dd\	.	8G#X\L	.
.	8b\J	.	8ee\J	.	.	.	.	.	.	8G#\J	.
=11	=11	=11	=11	=11	=11	=11	=11	=11	=11	=11	=11
*	*	*	*	*	*	*	*	*	*	*tremolo	*
!	!	!	!LO:TX:a:t=e	!	!	!	!	!	!	!	!
.	.	.	.	.	.	8qqcc/	.	.	.	.	.
2.ryy	8cc#X\L	.	8ee\L	.	2.ryy	4b\	ri-	4dd\	-ri-	8A\L	.
.	8cc#X\	.	8ee\	.	.	.	.	.	.	8A\	.
.	8cc#X\	.	8ee\	.	.	4a\	-a	4cc#X\	-a	8A\	.
.	8cc#X\	.	8ee\	.	.	.	.	.	.	8A\	.
.	8cc#X\	.	8ee\	.	.	4r	.	4r	.	8A\	.
.	8cc#X\J	.	8ee\J	.	.	.	.	.	.	8A\J	.
=12	=12	=12	=12	=12	=12	=12	=12	=12	=12	=12	=12
*	*Xtremolo	*	*	*	*	*	*	*	*	*	*
2.ryy	4r	.	8a\L	.	2.ryy	4r	.	8a\L	o	4A\	.
.	.	.	8b\	.	.	.	.	8b\	.	.	.
.	8a\L	.	8cc#X\	.	.	8a\L	o	8cc#X\	.	4AA/	.
.	8b\	.	8dd\	.	.	8b\	.	8dd\	.	.	.
.	8cc#X\	.	8ee\	.	.	8cc#X\	.	8ee\	.	4r	.
.	8dd\J	.	8ff#\J	.	.	8dd\J	.	8ff#\J	.	.	.
=13	=13	=13	=13	=13	=13	=13	=13	=13	=13	=13	=13
!	!	!LO:DY:t=f&colon;	!	!LO:DY:t=f&colon;	!	!	!	!	!	!	!
2.ryy	2ee\	f	2gg\	f	2.ryy	2ee\	Dul-	2gg\	Dul-	4A\	.
.	.	.	.	.	.	.	.	.	.	4c#X\	.
.	4dd\	.	4ff#\	.	.	4dd\	-cis	4ff#\	-cis	4d\	.
=14	=14	=14	=14	=14	=14	=14	=14	=14	=14	=14	=14
.	.	.	8qqaa/	.	.	.	.	8qqaa/	.	.	.
!	!	!LO:DY:t=p&colon;	!	!	!	!	!	!	!	!	!
2.ryy	8b\L	p	8gg\L	.	2.ryy	8b\L	vir-	8gg\L	Vir-	4G\	.
.	16a\L	.	16ff#\L	.	.	16a\L	.	16ff#\L	.	.	.
.	16g\JJ	.	16ee\JJ	.	.	16g\JJ	.	16ee\JJ	.	.	.
.	4f#/	.	4dd\	.	.	4f#\	.	4dd\	-go	4A\	.
.	4e/	.	4cc#X\	.	.	4e\	-go	4cc#X\	.	4AA/	.
!	!	!	!LO:LB:g=original	!	!	!	!	!	!	!	!
=15	=15	=15	=15	=15	=15	=15	=15	=15	=15	=15	=15
!	!LO:TX:t=P:problem= problem klamry łukowej	!	!LO:TX:t=P:problem= problem klamry łukowej	!	!	!	!	!	!	!	!
*	*	*	*Xtremolo	*	*	*	*	*	*	*	*
2.ryy	12d/L	.	12f#/L	.	2.ryy	12d'/L	Ma-	12f#'/L	Ma-	4D\	.
.	12e/	.	12g/	.	.	12e'/	.	12g'/	.	.	.
.	12f#/J	.	12a/J	.	.	12f#'/J	.	12a'/J	.	.	.
.	12f#/L	.	12a/L	.	.	12f#'/L	.	12a'/L	.	4D\	.
.	12f#/	.	12a/	.	.	12f#'/	.	12a'/	.	.	.
.	12f#/J	.	12a/J	.	.	12f#'/J	.	12a'/J	.	.	.
*	*Xtuplet	*	*	*	*	*	*	*	*	*	*
.	12g/L	.	12b\L	.	.	12g'/L	.	12b'\L	.	4D\	.
.	12b/	.	12dd\	.	.	12b'/	.	12dd'\	.	.	.
!	!	!	!	!	!	!	!	!LO:TX:b:t=V.C&colon;	!	!	!
.	12g/J	.	12b\J	.	.	12g'/J	.	12b'\J	.	.	.
!	!	!	!	!	!	!	!	!LO:LB:g=original	!	!	!
=16	=16	=16	=16	=16	=16	=16	=16	=16	=16	=16	=16
*	*	*	*	*	*	*	*	*Xtuplet	*	*	*
2.ryy	12f#/L	.	12a'\L	.	2.ryy	12f#'/L	.	12a/L	.	4D\	.
.	12d/	.	12f#'\	.	.	12d'/	.	12f#/	.	.	.
.	12e/J	.	12g'\J	.	.	12e'/J	.	12g/J	.	.	.
.	12f#/L	.	12a'\L	.	.	12f#'/L	.	12a/L	.	4D\	.
.	12f#/	.	12a'\	.	.	12f#'/	.	12a/	.	.	.
.	12f#/J	.	12a'\J	.	.	12f#'/J	.	12a/J	.	.	.
.	12g/L	.	12b'\L	.	.	12g'/L	.	12b/L	.	4D\	.
.	12b/	.	12dd'\	.	.	12b'/	.	12dd/	.	.	.
.	12g/J	.	12b'\J	.	.	12g'/J	.	12b/J	.	.	.
!	!	!	!	!	!	!LO:LB:g=original	!	!	!	!	!
=17	=17	=17	=17	=17	=17	=17	=17	=17	=17	=17	=17
*	*	*	*	*	*	*Xtuplet	*	*	*	*	*
2.ryy	12f#/L	.	12a/L	.	2.ryy	12f#/L	.	12a\L	.	4D\	.
.	12d/	.	12f#/	.	.	12d/	.	12f#\	.	.	.
.	12e/J	.	12g/J	.	.	12e/J	.	12g\J	.	.	.
.	12f#/L	.	12a/L	.	.	12f#/L	.	12a\L	.	4D\	.
.	12f#/	.	12a/	.	.	12f#/	.	12a\	.	.	.
.	12f#/J	.	12a/J	.	.	12f#/J	.	12a\J	.	.	.
.	12g/L	.	12b\L	.	.	12g/L	.	12b\L	.	4F#\	.
.	12e/	.	12cc#X\	.	.	12e/	.	12cc#X\	.	.	.
.	12f#/J	.	12dd\J	.	.	12f#/J	.	12dd\J	.	.	.
=18	=18	=18	=18	=18	=18	=18	=18	=18	=18	=18	=18
2.ryy	8g/L	.	8b\L	.	2.ryy	8g/L	.	8b\L	.	4G\	.
.	8g/J	.	8ee\J	.	.	8g/J	.	8ee\J	.	.	.
.	4f#/	.	4dd\	.	.	4f#/	-ri-	4dd\	-ri-	4A\	.
.	4e/	.	4cc#X\	.	.	4e/	-a	4cc#X\	-a	4AA/	.
!	!LO:LB:g=original	!	!	!	!	!	!	!	!	!	!
=19	=19	=19	=19	=19	=19	=19	=19	=19	=19	=19	=19
*	*tuplet	*	*	*	*	*	*	*	*	*	*
2.ryy	12d'/L	.	12f#'/L	.	2.ryy	12d/L	Ma-	12f#\L	Ma-	4D\	.
.	12e'/	.	12g'/	.	.	12e/	.	12g\	.	.	.
.	12f#'/J	.	12a'/J	.	.	12f#/J	.	12a\J	.	.	.
.	12f#'/L	.	12a'/L	.	.	12f#/L	.	12a\L	.	4D\	.
.	12f#'/	.	12a'/	.	.	12f#/	.	12a\	.	.	.
.	12f#'/J	.	12a'/J	.	.	12f#/J	.	12a\J	.	.	.
.	12g'/L	.	12b'\L	.	.	12g/L	.	12b\L	.	4D\	.
.	12b'/	.	12dd'\	.	.	12b/	.	12dd\	.	.	.
.	12g'/J	.	12b'\J	.	.	12g/J	.	12b\J	.	.	.
=20	=20	=20	=20	=20	=20	=20	=20	=20	=20	=20	=20
2.ryy	12f#'/L	.	12a'/L	.	2.ryy	12f#/L	.	12a\L	.	4D\	.
.	12d'/	.	12f#'/	.	.	12d/	.	12f#\	.	.	.
.	12e'/J	.	12g'/J	.	.	12e/J	.	12g\J	.	.	.
.	12f#'/L	.	12a'/L	.	.	12f#/L	.	12a\L	.	4D\	.
.	12f#'/	.	12a'/	.	.	12f#/	.	12a\	.	.	.
.	12f#'/J	.	12a'/J	.	.	12f#/J	.	12a\J	.	.	.
.	12g'/L	.	12b'/L	.	.	12g/L	.	12b\L	.	4D\	.
.	12b'/	.	12dd'/	.	.	12b/	.	12dd\	.	.	.
.	12g'/J	.	12b'/J	.	.	12g/J	.	12b\J	.	.	.
!	!	!	!LO:LB:g=original	!	!	!	!	!	!	!	!
=21	=21	=21	=21	=21	=21	=21	=21	=21	=21	=21	=21
2.ryy	12f#'/L	.	12a'/L	.	2.ryy	12f#/L	.	12a\L	.	4D\	.
.	12d'/	.	12f#'/	.	.	12d'/	.	12f#\	.	.	.
.	12e'/J	.	12g'/J	.	.	12e'/J	.	12g\J	.	.	.
.	12f#'/L	.	12a'/L	.	.	12f#'/L	.	12a\L	.	4D\	.
.	12f#'/	.	12a'/	.	.	12f#'/	.	12a\	.	.	.
.	12f#'/J	.	12a'/J	.	.	12f#'/J	.	12a\J	.	.	.
.	12g'/L	.	12b'\L	.	.	12g'/L	.	12b\L	.	4F#\	.
.	12e'/	.	12cc#X'\	.	.	12e'/	.	12cc#X\	.	.	.
.	12f#'/J	.	12dd'\J	.	.	12f#'/J	.	12dd\J	.	.	.
!	!	!	!	!	!	!	!	!LO:LB:g=original	!	!	!
=22	=22	=22	=22	=22	=22	=22	=22	=22	=22	=22	=22
.	.	.	.	.	.	8qqcc/	.	.	.	.	.
2.ryy	8b\L	.	8gg\L	.	2.ryy	8b\L	.	8gg\L	.	4G\	.
.	16a\L	.	16ff#\L	.	.	16a\L	.	16ff#\L	.	.	.
.	16g\JJ	.	16ee\JJ	.	.	16g\JJ	.	16ee\JJ	.	.	.
.	4f#/	.	4dd\	.	.	4f#\	-ri-	4dd\	-ri-	4A\	.
.	4e/	.	4cc#X\	.	.	4e\	.	4cc#X\	.	4AA/	.
!	!	!	!	!	!	!	!	!	!	!LO:LB:g=original	!
=23	=23	=23	=23	=23	=23	=23	=23	=23	=23	=23	=23
*	*tremolo	*	*tremolo	*	*	*	*	*	*	*Xtremolo	*
2.ryy	8f#/L	.	8dd\L	.	2.ryy	2f#\	-a	2dd\	-a	8D\L	.
.	8f#/	.	8dd\	.	.	.	.	.	.	8D\	.
.	8f#/	.	8dd\	.	.	.	.	.	.	8B\	.
.	8f#/J	.	8dd\	.	.	.	.	.	.	8B\	.
*	*Xtremolo	*	*	*	*	*	*	*	*	*	*
.	8fn/L	.	8dd\	.	.	4r	.	4r	.	8A\	.
.	8f/J	.	8dd\J	.	.	.	.	.	.	8A\J	.
!	!	!	!	!	!	!LO:LB:g=original	!	!	!	!	!
=24	=24	=24	=24	=24	=24	=24	=24	=24	=24	=24	=24
*	*tremolo	*	*Xtremolo	*	*	*	*	*	*	*tremolo	*
2.ryy	8e/L	.	8dd\L	.	2.ryy	2.r	.	4dd\	O	8G#X\L	.
.	8e/	.	8dd\	.	.	.	.	.	.	8G#X\	.
.	8e/	.	8ee\	.	.	.	.	4ee\	Cle-	8G#X\	.
.	8e/	.	8ee\	.	.	.	.	.	.	8G#X\	.
.	8e/	.	8b\	.	.	.	.	4b\	.	8G#X\	.
.	8e/J	.	8b\J	.	.	.	.	.	.	8G#X\J	.
=25	=25	=25	=25||:	=25	=25	=25	=25	=25	=25	=25	=25
!	!	!	!LO:TX:t=R	!	!	!	!	!	!	!	!
*	*	*	*tremolo	*	*	*	*	*	*	*	*
.	.	.	.	.	.	.	.	8qqdd/	.	.	.
2.ryy	8e/L	.	8cc\L	.	2.ryy	4a\	o	2ccn\	-mens	8A\L	.
.	8e/	.	8cc\	.	.	.	.	.	.	8A\	.
.	8e/	.	8cc\	.	.	4e\	.	.	.	8A\	.
.	8e/J	.	8cc\	.	.	.	.	.	.	8A\J	.
*	*Xtremolo	*	*	*	*	*	*	*	*	*Xtremolo	*
.	8e-X/L	.	8cc\	.	.	4g\	pi-	4cc\	o	8G\L	.
.	8e-/J	.	8cc\J	.	.	.	.	.	.	8G\J	.
=26	=26	=26	=26:||	=26	=26	=26	=26	=26	=26	=26	=26
!	!	!	!LO:TX:t=P:problem=t. 26 zapisany jako repetycja	!	!	!	!	!	!	!	!
*	*tremolo	*	*	*	*	*	*	*	*	*tremolo	*
2.ryy	8d/L	.	8cc\Lyy	.	2.ryy	4f#\	-a	4cc\	Dul-	8F#\L	.
.	8d/	.	8cc\yy	.	.	.	.	.	.	8F#\	.
.	8d/	.	8cc\yy	.	.	4r	.	4dd\	.	8F#\	.
.	8d/	.	8cc\yy	.	.	.	.	.	.	8F#\	.
.	8d/	.	8cc\yy	.	.	4r	.	4a\	-cis	8F#\	.
.	8d/J	.	8cc\Jyy	.	.	.	.	.	.	8F#\J	.
!	!LO:LB:g=original	!	!	!	!	!	!	!	!	!	!
=27	=27	=27	=27	=27	=27	=27	=27	=27	=27	=27	=27
2.ryy	8g\L	.	(8b\L	.	2.ryy	(8g\L	Vir-	(8b\L	vir-	4G\	.
.	8f#\	.	8a\)	.	.	8f#\)	.	8a\)	.	.	.
.	8a\	.	(8cc\	.	.	(8a\	.	(8cc\	.	4GG/	.
.	8g\	.	8b\)	.	.	8g\)	.	8b\)	.	.	.
.	8cc\	.	(8ee\	.	.	(8cc\	.	(8ee\	.	4r	.
.	8b\J	.	8dd\J)	.	.	8b\J)	.	8dd\J)	.	.	.
=28	=28	=28	=28	=28	=28	=28	=28	=28	=28	=28	=28
*	*Xtremolo	*	*Xtremolo	*	*	*	*	*	*	*Xtremolo	*
2.ryy	8b\L	.	8dd\L	.	2.ryy	4b\	.	4dd\	.	8D\L	.
.	8b\	.	8dd\	.	.	.	.	.	.	8D\	.
.	8a\	.	8cc\	.	.	4a\	.	4cc\	.	8F#\	.
.	8a\	.	8cc\	.	.	.	.	.	.	8F#\	.
.	8g\	.	8b\	.	.	4g\	-go	4b\	-go	8G\	.
.	8g\J	.	8b\J	.	.	.	.	.	.	8G\J	.
=29	=29	=29	=29	=29	=29	=29	=29	=29	=29	=29	=29
*	*	*	*	*	*	*	*	*	*	*tremolo	*
2.ryy	8.cc\L	.	8.ee\L	.	2.ryy	8.cc\L	Ma-	8.ee\L	Ma-	8C#X\L	.
.	.	.	.	.	.	.	.	.	.	8C#X\	.
.	16b\Jk	.	16dd\Jk	.	.	16b\Jk	.	16dd\Jk	.	.	.
.	4a\	.	8cc\L	.	.	4a\	.	4cc\	.	8C#X\	.
.	.	.	8cc\	.	.	.	.	.	.	8C#X\	.
.	4g\	.	8b\	.	.	4g\	.	4b\	.	8C#X\	.
.	.	.	8b\J	.	.	.	.	.	.	8C#X\J	.
!	!	!	!LO:LB:g=original	!	!	!	!	!	!	!	!
=30	=30	=30	=30	=30	=30	=30	=30	=30	=30	=30	=30
*	*	*	*	*	*	*	*	*	*	*Xtremolo	*
!	!	!	!	!	!	!	!	!	!	!LO:TX:t=P:problem=mixed beam	!
2.ryy	8g/L	.	8b\L	.	2.ryy	4g\	-ri-	4b\	-ri-	8D\L	.
.	8g/	.	8b\	.	.	.	.	.	.	8DD\	.
.	8f#/	.	8a\	.	.	4f#\	-a	4a\	-a	8D\	.
.	8f#/	.	8a\J	.	.	.	.	.	.	8D\	.
!	!	!	!	!	!	!	!	!LO:N:vis=2	!	!	!
.	8f#/	.	8.ff#\L	.	.	4r	.	4r	.	8C#X\	.
.	8f#/J	.	.	.	.	.	.	.	.	8C#\J	.
.	.	.	32ee\LL	.	.	.	.	.	.	.	.
.	.	.	32ff#\JJJ	.	.	.	.	.	.	.	.
!	!	!	!	!	!	!LO:LB:g=original	!	!LO:LB:g=original	!	!	!
=31	=31	=31	=31	=31	=31	=31	=31	=31	=31	=31	=31
*	*tremolo	*	*tremolo	*	*	*	*	*	*	*tremolo	*
2.ryy	8g/L	.	8gg\L	.	2.ryy	2.r	.	16dd\LL	Vir-	8BB/L	.
.	.	.	.	.	.	.	.	16g\	.	.	.
.	8g/	.	8dd\J	.	.	.	.	16a\	.	8BB/	.
.	.	.	.	.	.	.	.	16b\JJ	.	.	.
.	8g/	.	8dd\L	.	.	.	.	16ccn\LL	.	8BB/	.
.	.	.	.	.	.	.	.	16dd\	.	.	.
.	8g/	.	8dd\	.	.	.	.	16ee\	.	8BB/	.
.	.	.	.	.	.	.	.	16ff#\JJ	.	.	.
.	8g/	.	8dd\	.	.	.	.	8.gg\L	.	8BB/	.
.	8g/J	.	8dd\J	.	.	.	.	.	.	8BB/J	.
.	.	.	.	.	.	.	.	16ffn\Jk	.	.	.
=32	=32	=32	=32	=32	=32	=32	=32	=32	=32	=32	=32
2.ryy	8g/L	.	8ee\L	.	2.ryy	16r	.	2ee\	-go	8C/L	.
.	.	.	.	.	.	16g\LL	Ma-	.	.	.	.
.	8g/	.	8ee\	.	.	16a\	.	.	.	8C/	.
.	.	.	.	.	.	16b\JJ	.	.	.	.	.
.	8g/	.	8ee\	.	.	16cc\LL	.	.	.	8C/	.
.	.	.	.	.	.	16dd\	.	.	.	.	.
.	8g/J	.	8ee\	.	.	16ee\	.	.	.	8C/	.
.	.	.	.	.	.	16dd\JJ	.	.	.	.	.
.	8g/L	.	8ee\	.	.	16cc\LL	.	4r	.	8C/	.
.	.	.	.	.	.	16b\	.	.	.	.	.
.	8g#X/J	.	8ee\J	.	.	16a\	-ri-	.	.	8C/J	.
.	.	.	.	.	.	16g#X\JJ	.	.	.	.	.
=33	=33	=33	=33	=33	=33	=33	=33	=33	=33	=33	=33
2.ryy	8a/L	.	8ee\L	.	2.ryy	4a\	-a	16ee\LL	Vir-	8C/L	.
.	.	.	.	.	.	.	.	16a\	.	.	.
.	8a/	.	8ee\	.	.	.	.	16b\	.	8C/	.
.	.	.	.	.	.	.	.	16cc\JJ	.	.	.
.	8a/	.	8ee\	.	.	4r	.	16dd\LL	.	8C/	.
.	.	.	.	.	.	.	.	16ee\	.	.	.
.	8a/	.	8ee\	.	.	.	.	16ff#\	.	8C/	.
.	.	.	.	.	.	.	.	16gg#X\JJ	.	.	.
.	8a/	.	8ee\	.	.	4r	.	8.aa\L	.	8C/	.
.	8a/J	.	8ee\J	.	.	.	.	.	.	8C/J	.
.	.	.	.	.	.	.	.	16gg#\Jk	.	.	.
!	!	!	!	!	!	!	!	!	!	!LO:LB:g=original	!
=34	=34	=34	=34	=34	=34	=34	=34	=34	=34	=34	=34
.	.	.	.	.	.	.	.	8qqee/	.	.	.
2.ryy	8a\L	.	8ff#\L	.	2.ryy	16r	.	2ff#\	-go	8D\L	.
.	.	.	.	.	.	16a\LL	Ma-	.	.	.	.
.	8a\	.	8ff#\	.	.	16b\	.	.	.	8D\	.
.	.	.	.	.	.	16cc#X\JJ	.	.	.	.	.
.	8a\	.	8ff#\	.	.	16dd\LL	.	.	.	8D\	.
.	.	.	.	.	.	16ee\	.	.	.	.	.
.	8a\J	.	8ff#\	.	.	16ff#\	.	.	.	8D\	.
.	.	.	.	.	.	16ee\JJ	.	.	.	.	.
.	8a\L	.	8ff#\	.	.	16dd\LL	.	4r	.	8D\	.
.	.	.	.	.	.	16cc#\	-ri-	.	.	.	.
.	8a#X\J	.	8ff#\J	.	.	16b\	.	.	.	8D\J	.
.	.	.	.	.	.	16a#X\JJ	.	.	.	.	.
=35	=35	=35	=35	=35	=35	=35	=35	=35	=35	=35	=35
2.ryy	8b\L	.	8ff#\L	.	2.ryy	2b\	-a	16ff#\LL	Ma-	8D#X\L	.
.	.	.	.	.	.	.	.	16b\	.	.	.
.	8b\	.	8ff#\	.	.	.	.	16cc\	.	8D#X\	.
.	.	.	.	.	.	.	.	16dd#X\JJ	.	.	.
.	8b\	.	8ff#\	.	.	.	.	16ee\LL	.	8D#X\	.
.	.	.	.	.	.	.	.	16ff#\	.	.	.
.	8b\	.	8ff#\	.	.	.	.	16gg\	.	8D#X\	.
.	.	.	.	.	.	.	.	16aa#X\JJ	.	.	.
.	8b\	.	8ff#\	.	.	4r	.	8.bb\L	-ri-	8D#X\	.
.	8b\J	.	8ff#\J	.	.	.	.	.	.	8D#X\J	.
.	.	.	.	.	.	.	.	16aa#\Jk	-a	.	.
=36	=36	=36	=36	=36	=36	=36	=36	=36	=36	=36	=36
.	.	.	.	.	.	8qqffn/	.	8qqaa/	.	.	.
*	*	*	*	*	*	*	*	*	*	*Xtremolo	*
2.ryy	8ee\L	.	8gg\L	.	2.ryy	2ee\	Vir-	2gg\	Vir-	8E\L	.
.	8ee\	.	8gg\	.	.	.	.	.	.	8E\	.
.	8ee\	.	8gg\	.	.	.	.	.	.	8e\	.
.	8ee\J	.	8gg\J	.	.	.	.	.	.	8e\	.
*	*Xtremolo	*	*	*	*	*	*	*	*	*	*
.	8dd\L	.	8ffn\L	.	.	4dd\	-go	4ffn\	-go	8B\	.
.	8dd\J	.	8ffn\J	.	.	.	.	.	.	8B\J	.
!	!LO:LB:g=original	!	!	!	!	!	!	!LO:LB:g=original	!	!	!
=37	=37	=37	=37	=37	=37	=37	=37	=37	=37	=37	=37
*	*tremolo	*	*	*	*	*	*	*	*	*tremolo	*
!	!	!	!	!	!	!	!	!	!	!LO:N:vis=2.	!
.	.	.	.	.	.	8qqdd/	.	8qqffn/	.	.	.
2.ryy	8cc\L	.	8ee\L	.	2.ryy	2cc\	Pi-	2ee\	pi-	8c\L	.
.	8cc\	.	8ee\	.	.	.	.	.	.	8c\	.
.	8cc\	.	8ee\	.	.	.	.	.	.	8c\	.
.	8cc\J	.	8ee\J	.	.	.	.	.	.	8c\J	.
*	*Xtremolo	*	*	*	*	*	*	*	*	*Xtremolo	*
.	8b\L	.	8dd\L	.	.	4b\	-a	4dd\	-a	8G#X\L	.
.	8b\J	.	8dd\J	.	.	.	.	.	.	8G#\J	.
=38	=38	=38	=38	=38	=38	=38	=38	=38	=38	=38	=38
*	*tremolo	*	*	*	*	*	*	*	*	*	*
2.ryy	8a\L	.	8cc\L	.	2.ryy	4a\	o	4cc\	o	8A\L	.
.	8a\	.	8cc\	.	.	.	.	.	.	8A\	.
.	8a\	.	8cc\	.	.	4a\	dul-	4cc\	Dul-	8G\	.
.	8a\	.	8cc\	.	.	.	.	.	.	8G\	.
.	8a\	.	8cc\	.	.	4a\	-cis	4cc\	-cis	8F#\	.
.	8a\J	.	8cc\J	.	.	.	.	.	.	8F#\J	.
*	*	*	*Xtremolo	*	*	*	*	*	*	*	*
*	*Xtremolo	*	*	*	*	*	*	*	*	*	*
=39	=39	=39	=39	=39	=39	=39	=39	=39	=39	=39	=39
!	!	!	!	!	!	!	!	!	!	!LO:TX:t=P:problem=mixed beam	!
2.ryy	8g\L	.	(8b\L	.	2.ryy	(8g\L	Vir-	(8b\L	Vir-	8G/L	.
.	8f#\	.	8a\)	.	.	8f#\)	.	8a\)	.	8GG/	.
.	8a\	.	(8cc\	.	.	(8a\	-go	(8cc\	-go	8AA/	.
.	8g\	.	8b\)	.	.	8g\)	.	8b\)	.	8AA/	.
.	8cc\	.	(8ee\	.	.	(8cc\	Ma-	(8ee\	Ma-	8BB/	.
.	8b\J	.	8dd\J)	.	.	8b\J)	.	8dd\J)	.	8BB/J	.
=40	=40	=40	=40	=40	=40	=40	=40	=40	=40	=40	=40
!	!	!	!	!	!	!	!	!	!	!LO:TX:t=P:problem=mixed beam	!
2.ryy	8b\L	.	8.dd\L	.	2.ryy	8b\L	.	8dd\L	.	8C/L	.
.	8a\J	.	.	.	.	8a\J	.	8cc\J	.	8C/	.
.	.	.	16cc\Jk	.	.	.	.	.	.	.	.
.	4g\	.	4b\	.	.	4g\	-ri-	4b\	-ri-	8D/	.
.	.	.	.	.	.	.	.	.	.	8D/	.
.	4f#\	.	4a\	.	.	4f#\	-a	4a\	-a	8DD/	.
.	.	.	.	.	.	.	.	.	.	8DD/J	.
!	!	!	!LO:LB:g=original	!	!	!	!	!	!	!	!
=41	=41	=41	=41	=41	=41	=41	=41	=41	=41	=41	=41
!	!LO:TX:t=P:problem= problem klamry łukowej	!	!LO:TX:t=P:problem= problem klamry łukowej	!	!	!	!	!	!	!	!
*	*	*	*Xtremolo	*	*	*	*	*	*	*	*
2.ryy	12g'\L	.	12b'\L	.	2.ryy	12g\L	Ma-	12b'\L	Ma-	4GG/	.
.	12a'\	.	12cc'\	.	.	12a\	.	12cc'\	.	.	.
.	12b'\J	.	12dd'\J	.	.	12b\J	.	12dd'\J	.	.	.
.	12b'\L	.	12dd'\L	.	.	12b\L	.	12dd\L	.	4GG/	.
.	12b'\	.	12dd'\	.	.	12b\	.	12dd\	.	.	.
.	12b'\J	.	12dd'\J	.	.	12b\J	.	12dd\J	.	.	.
.	12cc'\L	.	12ee'\L	.	.	12cc\L	.	12ee\L	.	4GG/	.
.	12ee'\	.	12gg'\	.	.	12ee\	.	12gg\	.	.	.
.	12cc'\J	.	12ee'\J	.	.	12cc\J	.	12ee\J	.	.	.
!	!	!	!	!	!	!LO:LB:g=original	!	!	!	!	!
=42	=42	=42	=42	=42	=42	=42	=42	=42	=42	=42	=42
2.ryy	12b'\L	.	12dd'\L	.	2.ryy	12b\L	.	12dd\L	.	4GG/	.
.	12g'\	.	12b'\	.	.	12g\	.	12b\	.	.	.
.	12a'\J	.	12cc'\J	.	.	12a\J	.	12cc\J	.	.	.
.	12b'\L	.	12dd'\L	.	.	12b\L	.	12dd\L	.	4GG/	.
.	12b'\	.	12dd'\	.	.	12b\	.	12dd\	.	.	.
.	12b'\J	.	12dd'\J	.	.	12b\J	.	12dd\J	.	.	.
.	12cc'\L	.	12ee'\L	.	.	12cc\L	.	12ee\L	.	4GG/	.
.	12ee'\	.	12gg'\	.	.	12ee\	.	12gg\	.	.	.
.	12cc'\J	.	12ee'\J	.	.	12cc\J	.	12ee\J	.	.	.
=43	=43	=43	=43	=43	=43	=43	=43	=43	=43	=43	=43
2.ryy	12b'\L	.	12dd'\L	.	2.ryy	12b\L	.	12dd\L	.	4GG/	.
.	12g'\	.	12b'\	.	.	12g\	.	12b\	.	.	.
.	12a'\J	.	12cc'\J	.	.	12a\J	.	12cc\J	.	.	.
.	12b'\L	.	12dd'\L	.	.	12b\L	.	12dd\L	.	4GG/	.
.	12b'\	.	12dd'\	.	.	12b\	.	12dd\	.	.	.
.	12b'\J	.	12dd'\J	.	.	12b\J	.	12dd\J	.	.	.
!	!	!	!	!LO:DY:t=f&colon;	!	!	!	!	!	!	!
!	!	!	!	!	!	!	!	!	!	!	!LO:DY:t=f&colon;
.	12cc'\L	.	12ee'\L	f	.	12cc\L	.	12ee\L	.	4BB/	f
!	!	!LO:DY:t=f&colon;	!	!	!	!	!	!	!	!	!
.	12a'\	f	12ff#'\	.	.	12a\	.	12ff#\	.	.	.
.	12b'\J	.	12gg'\J	.	.	12b\J	.	12gg\J	.	.	.
!	!LO:LB:g=original	!	!	!	!	!	!	!LO:LB:g=original	!	!	!
!	!	!	!	!	!	!	!	!	!	!LO:LB:g=original	!
=44	=44	=44	=44	=44	=44	=44	=44	=44	=44	=44	=44
2.ryy	12cc\L	.	8ee'\L	.	2.ryy	12cc\L	.	12ee\L	.	4C\	.
.	12b\	.	.	.	.	12b\	.	12dd\	.	.	.
.	.	.	(16dd\L	.	.	.	.	.	.	.	.
.	12a\J	.	.	.	.	12a\J	.	12cc\J	.	.	.
.	.	.	16cc\JJ	.	.	.	.	.	.	.	.
.	4g\	.	4b\)	.	.	4g\	-ri-	4b\	-ri-	4D\	.
.	4f#\	.	4a\	.	.	4f#\	-a	4aM\	-a	4DD/	.
=45	=45	=45	=45	=45	=45	=45	=45	=45	=45	=45	=45
!	!	!LO:DY:t=p&colon;	!	!LO:DY:t=p&colon;	!	!	!	!	!	!	!
!	!	!	!	!	!	!	!	!	!	!	!LO:DY:t=p&colon;
2.ryy	12g'\L	p	12b'\L	p	2.ryy	12g\L	Ma-	12b\L	Ma-	4GG/	p
.	12a'\	.	12cc'\	.	.	12a\	.	12cc\	.	.	.
.	12b'\J	.	12dd'\J	.	.	12b\J	.	12dd\J	.	.	.
.	12b'\L	.	12dd'\L	.	.	12b\L	.	12dd\L	.	4GG/	.
.	12b'\	.	12dd'\	.	.	12b\	.	12dd\	.	.	.
.	12b'\J	.	12dd'\J	.	.	12b\J	.	12dd\J	.	.	.
.	12cc'\L	.	12ee'\L	.	.	12cc\L	.	12ee\L	.	4GG/	.
.	12ee'\	.	12gg'\	.	.	12ee\	.	12gg\	.	.	.
.	12cc'\J	.	12ee'\J	.	.	12cc\J	.	12ee\J	.	.	.
=46	=46	=46	=46	=46	=46	=46	=46	=46	=46	=46	=46
2.ryy	12b'\L	.	12dd'\L	.	2.ryy	12b\L	.	12dd\L	.	4GG/	.
.	12g'\	.	12b'\	.	.	12g\	.	12b\	.	.	.
.	12a'\J	.	12cc'\J	.	.	12a\J	.	12cc\J	.	.	.
.	12b'\L	.	12dd'\L	.	.	12b\L	.	12dd\L	.	4GG/	.
.	12b'\	.	12dd'\	.	.	12b\	.	12dd\	.	.	.
.	12b'\J	.	12dd'\J	.	.	12b\J	.	12dd\J	.	.	.
.	12cc'\L	.	12ee'\L	.	.	12cc\L	.	12ee\L	.	4GG/	.
.	12ee'\	.	12gg'\	.	.	12ee\	.	12gg\	.	.	.
.	12cc'\J	.	12ee'\J	.	.	12cc\J	.	12ee\J	.	.	.
!	!	!	!LO:LB:g=original	!	!	!LO:LB:g=original	!	!	!	!	!
=47	=47	=47	=47	=47	=47	=47	=47	=47	=47	=47	=47
2.ryy	12b'\L	.	12dd'\L	.	2.ryy	12b\L	.	12dd\L	.	4GG/	.
.	12g'\	.	12b'\	.	.	12g\	.	12b\	.	.	.
.	12a'\J	.	12cc'\J	.	.	12a\J	.	12cc\J	.	.	.
.	12b'\L	.	12dd'\L	.	.	12b\L	.	12dd\L	.	4GG/	.
.	12b'\	.	12dd'\	.	.	12b\	.	12dd\	.	.	.
.	12b'\J	.	12dd'\J	.	.	12b\J	.	12dd\J	.	.	.
!	!	!LO:DY:t=f&colon;	!	!LO:DY:t=f&colon;	!	!	!	!	!	!	!
!	!	!	!	!	!	!	!	!	!	!	!LO:DY:t=f&colon;
.	12cc'\L	f	12ee'\L	f	.	12cc\L	.	12ee\L	.	4BB/	f
.	12a'\	.	12ff#'\	.	.	12a\	.	12ff#\	.	.	.
.	12b'\J	.	12gg'\J	.	.	12b\J	.	12gg\J	.	.	.
=48	=48	=48	=48	=48	=48	=48	=48	=48	=48	=48	=48
2.ryy	12cc\L	.	8ee\L	.	2.ryy	12cc\L	.	12ee\L	.	4C/	.
.	12b\	.	.	.	.	12b\	.	12dd\	.	.	.
.	.	.	16dd\L	.	.	.	.	.	.	.	.
.	12a\J	.	.	.	.	12a\J	.	12cc\J	.	.	.
.	.	.	16cc\JJ	.	.	.	.	.	.	.	.
.	4g\	.	4b\	.	.	4g\	.	4b\	-ri-	4D\	.
.	4f#\	.	4a\	.	.	4f#\	-ri-	4aM\	.	4DD/	.
=49	=49	=49	=49	=49	=49	=49	=49	=49	=49	=49	=49
!	!	!LO:DY:t=pianiſ	!	!LO:DY:t=pianiſsime	!	!	!	!	!	!	!
!	!	!	!	!	!	!	!	!	!	!	!LO:DY:t=pianiſs
2.ryy	8r	pp	8r	pp	2.ryy	4g\	-a.	4g\	-a	4GG/	pp
.	(8b\L	.	(8bb\L	.	.	.	.	.	.	.	.
.	8a\	.	8aa\	.	.	4r	.	4r	.	2G\	.
.	8g\	.	8gg\	.	.	.	.	.	.	.	.
.	8f#\	.	8ff#\	.	.	4r	.	4r	.	.	.
.	8e\J)	.	8ee\J)	.	.	.	.	.	.	.	.
!	!LO:LB:g=original	!	!	!	!	!	!	!LO:LB:g=original	!	!	!
=50	=50	=50	=50	=50	=50	=50	=50	=50	=50	=50	=50
2.ryy	8r	.	8r	.	2.ryy	2.r	.	2.r	.	2F#\	.
.	(8a/L	.	(8aa\L	.	.	.	.	.	.	.	.
.	8g/	.	8gg\	.	.	.	.	.	.	.	.
.	8f#/	.	8ff#\	.	.	.	.	.	.	.	.
.	8e/	.	8ee\	.	.	.	.	.	.	4F#\	.
.	8d/J)	.	8dd\J)	.	.	.	.	.	.	.	.
=51	=51	=51	=51	=51	=51	=51	=51	=51	=51	=51	=51
!	!LO:TX:t=P:problem=mixed beam	!	!LO:TX:t=P:problem=mixed beam	!	!	!	!	!	!	!	!
2.ryy	(8cn\L	.	(8ccn\L	.	2.ryy	2.r	.	2.r	.	2G\	.
.	8B\)	.	8b\)	.	.	.	.	.	.	.	.
.	(8b\	.	(8gg\	.	.	.	.	.	.	.	.
.	8a\)	.	8ff#\)	.	.	.	.	.	.	.	.
.	(8g\	.	(8ee\	.	.	.	.	.	.	4G#X\	.
.	8f#\J)	.	8dd\J)	.	.	.	.	.	.	.	.
=52	=52	=52	=52	=52	=52	=52	=52	=52	=52	=52	=52
!	!	!	!	!	!	!LO:TX:a:t=il Coro \nDa capo	!	!LO:TX:a:t=il Coro Da Capo	!	!	!
2.ryy	2f#/	.	(2dd\	.	2.ryy	2.r;	.	2.r;	.	2A\	.
!	!LO:TX:a:t=il coro da capo	!	!LO:TX:a:t=Coro Da Capo	!	!	!	!	!	!	!LO:TX:a:t=il Coro\nDa capo	!
.	4e/	.	4cc#X\)	.	.	.	.	.	.	4AA/	.
==	==	==	==	==	==	==	==	==	==	==	==
*-	*-	*-	*-	*-	*-	*-	*-	*-	*-	*-	*-
!!!system-decoration: s1[(s2,s3,s4)][(s5,s6,s7)]
!!!ENC: Marcin Jachim
!!!END: 2020-10-06
!!!ENC: Natalia Wrzos
!!!END: 2022-01-31
